extra/images/walls/default/11/00.svg

<?xml version="1.0" encoding="UTF-8" standalone="no"?>
<!-- Created with Inkscape (http://www.inkscape.org/) -->
<svg
   xmlns:dc="http://purl.org/dc/elements/1.1/"
   xmlns:cc="http://creativecommons.org/ns#"
   xmlns:rdf="http://www.w3.org/1999/02/22-rdf-syntax-ns#"
   xmlns:svg="http://www.w3.org/2000/svg"
   xmlns="http://www.w3.org/2000/svg"
   xmlns:sodipodi="http://sodipodi.sourceforge.net/DTD/sodipodi-0.dtd"
   xmlns:inkscape="http://www.inkscape.org/namespaces/inkscape"
   width="32px"
   height="32px"
   id="svg3505"
   sodipodi:version="0.32"
   inkscape:version="0.46"
   sodipodi:docname="wall-default-11.svg"
   inkscape:output_extension="org.inkscape.output.svg.inkscape">
  <defs
     id="defs3507">
    <inkscape:perspective
       sodipodi:type="inkscape:persp3d"
       inkscape:vp_x="0 : 16 : 1"
       inkscape:vp_y="0 : 1000 : 0"
       inkscape:vp_z="32 : 16 : 1"
       inkscape:persp3d-origin="16 : 10.666667 : 1"
       id="perspective3513" />
    <inkscape:perspective
       id="perspective4690"
       inkscape:persp3d-origin="372.04724 : 350.78739 : 1"
       inkscape:vp_z="744.09448 : 526.18109 : 1"
       inkscape:vp_y="0 : 1000 : 0"
       inkscape:vp_x="0 : 526.18109 : 1"
       sodipodi:type="inkscape:persp3d" />
    <inkscape:perspective
       id="perspective2564"
       inkscape:persp3d-origin="372.04724 : 350.78739 : 1"
       inkscape:vp_z="744.09448 : 526.18109 : 1"
       inkscape:vp_y="0 : 1000 : 0"
       inkscape:vp_x="0 : 526.18109 : 1"
       sodipodi:type="inkscape:persp3d" />
  </defs>
  <sodipodi:namedview
     id="base"
     pagecolor="#ffffff"
     bordercolor="#666666"
     borderopacity="1.0"
     inkscape:pageopacity="0.0"
     inkscape:pageshadow="2"
     inkscape:zoom="15.25"
     inkscape:cx="16"
     inkscape:cy="16"
     inkscape:current-layer="layer1"
     showgrid="true"
     inkscape:grid-bbox="true"
     inkscape:document-units="px"
     objecttolerance="4"
     gridtolerance="4"
     guidetolerance="4"
     inkscape:window-width="1280"
     inkscape:window-height="713"
     inkscape:window-x="0"
     inkscape:window-y="37"
     inkscape:object-paths="true"
     inkscape:object-nodes="true"
     inkscape:snap-bbox="true"
     inkscape:snap-guide="true"
     showguides="true"
     inkscape:guide-bbox="true">
    <inkscape:grid
       type="xygrid"
       id="grid3515"
       units="px"
       visible="true"
       enabled="true"
       spacingx="1px"
       spacingy="1px" />
    <sodipodi:guide
       orientation="-0.70710678,0.70710678"
       position="33.245902,33.245902"
       id="guide3622" />
    <sodipodi:guide
       orientation="0.70710678,0.70710678"
       position="0,32"
       id="guide3624" />
  </sodipodi:namedview>
  <metadata
     id="metadata3510">
    <rdf:RDF>
      <cc:Work
         rdf:about="">
        <dc:format>image/svg+xml</dc:format>
        <dc:type
           rdf:resource="http://purl.org/dc/dcmitype/StillImage" />
        <dc:title>Vorlage für 32x32-Pixel-Icons für McMinos</dc:title>
        <dc:date>2010-04-05</dc:date>
        <dc:creator>
          <cc:Agent>
            <dc:title>Andreas Neudecker &lt;zapyon@gmx.net&gt;</dc:title>
          </cc:Agent>
        </dc:creator>
        <dc:rights>
          <cc:Agent>
            <dc:title>Copyright (C) 2010 by Andreas Neudecker</dc:title>
          </cc:Agent>
        </dc:rights>
        <dc:publisher>
          <cc:Agent>
            <dc:title>Andreas Neudecker</dc:title>
          </cc:Agent>
        </dc:publisher>
        <dc:identifier>vorlage-32x32-mcminos</dc:identifier>
        <dc:description>Vorlage für 32x32-Pixel-Icons für McMinos. Metadaten jeweils entsprechend anpassen!</dc:description>
      </cc:Work>
    </rdf:RDF>
  </metadata>
  <g
     id="layer1"
     inkscape:label="Layer 1"
     inkscape:groupmode="layer">
    <g
       id="g6303">
      <path
         sodipodi:nodetypes="ccccccccc"
         id="path3635"
         d="M 3,0 L 3,3 L 0,3 L 0,29 L 32,29 L 32,3 L 29,3 L 29,0 L 3,0 z"
         style="fill:#000000;fill-opacity:1;fill-rule:nonzero;stroke:none;stroke-width:2;stroke-linecap:round;stroke-linejoin:miter;stroke-miterlimit:4;stroke-dashoffset:0;stroke-opacity:1" />
      <path
         sodipodi:nodetypes="ccccc"
         style="fill:#0000ff;fill-opacity:1;fill-rule:nonzero;stroke:none;stroke-width:2;stroke-linecap:round;stroke-linejoin:miter;stroke-miterlimit:4;stroke-dasharray:none;stroke-dashoffset:0;stroke-opacity:1"
         d="M 0,28 L 32,28 L 32,16 L 0,16 L 0,28 z"
         id="path3646" />
      <path
         style="fill:#00ffff;fill-opacity:1;fill-rule:nonzero;stroke:none;stroke-width:2;stroke-linecap:round;stroke-linejoin:miter;stroke-miterlimit:4;stroke-dasharray:none;stroke-dashoffset:0;stroke-opacity:1"
         d="M 16,16 L -2e-07,16 L -2e-07,4 L 3.9999998,4 L 16,16 z"
         id="path3642"
         sodipodi:nodetypes="ccccc" />
      <path
         id="path3644"
         d="M 3.9999999,3.9999999 L 3.9999999,0 L 16,0 L 16,16 L 3.9999999,3.9999999 z"
         style="fill:#0000ff;fill-opacity:1;fill-rule:nonzero;stroke:none;stroke-width:2;stroke-linecap:round;stroke-linejoin:miter;stroke-miterlimit:4;stroke-dasharray:none;stroke-dashoffset:0;stroke-opacity:1"
         sodipodi:nodetypes="ccccc" />
      <path
         sodipodi:nodetypes="ccccccc"
         id="path2570"
         d="M 16,16 L 16,0 L 28,0 L 28,4 L 32,4 L 32,16 L 16,16 z"
         style="fill:#00ffff;fill-opacity:1;fill-rule:nonzero;stroke:none;stroke-width:2;stroke-linecap:round;stroke-linejoin:miter;stroke-miterlimit:4;stroke-dasharray:none;stroke-dashoffset:0;stroke-opacity:1" />
      <path
         d="M 17,16 A 1,1 0 1 1 15,16 A 1,1 0 1 1 17,16 z"
         sodipodi:ry="1"
         sodipodi:rx="1"
         sodipodi:cy="16"
         sodipodi:cx="16"
         id="path3344"
         style="fill:#c0c0c0;fill-opacity:1;fill-rule:nonzero;stroke:none;stroke-width:2;stroke-linecap:round;stroke-linejoin:miter;stroke-miterlimit:4;stroke-dasharray:none;stroke-dashoffset:0;stroke-opacity:1"
         sodipodi:type="arc" />
      <path
         id="path3626"
         d="M 18,0 L 18,14.03125 L 32,14.03125 L 32,13.03125 L 19,13.03125 L 19,0 L 18,0 z M 20,0 L 20,12.03125 L 32,12.03125 L 32,11.03125 L 21,11.03125 L 21,0 L 20,0 z M 22,0 L 22.03125,10.03125 L 32,10.03125 L 32,9.03125 L 23.03125,9.03125 L 23,0 L 22,0 z M 23.96875,0 L 24,8.03125 L 32,8.03125 L 32,7.03125 L 25,7.03125 L 25,0 L 23.96875,0 z M 26,0 L 26,6.03125 L 32,6.03125 L 32,5.03125 L 27,5.03125 L 27,0 L 26,0 z"
         style="fill:#c3c3c3;fill-opacity:1;fill-rule:nonzero;stroke:none;stroke-width:2;stroke-linecap:round;stroke-linejoin:miter;stroke-miterlimit:4;stroke-dasharray:none;stroke-dashoffset:0;stroke-opacity:1" />
      <path
         id="path3368"
         d="M 0 18 L 0 19 L 19 19 L 32 19 L 32 18 L 18 18 L 0 18 z M 0 20 L 0 21 L 21 21 L 32 21 L 32 20 L 20 20 L 0 20 z M 0 22 L 0 23 L 22.96875 23 L 23 23 L 32 23 L 32 22 L 22 22 L 21.96875 22 L 0 22 z M 0 24 L 0 25 L 25 25 L 32 25 L 32 24 L 24 24 L 0 24 z M 0 26 L 0 27 L 27 27 L 32 27 L 32 26 L 26 26 L 0 26 z "
         style="fill:#6b6b6b;fill-opacity:1;fill-rule:nonzero;stroke:none;stroke-width:2;stroke-linecap:round;stroke-linejoin:miter;stroke-miterlimit:4;stroke-dasharray:none;stroke-dashoffset:0;stroke-opacity:1" />
      <path
         transform="matrix(-1,0,0,-1,32,32)"
         sodipodi:type="arc"
         style="fill:#00005c;fill-opacity:1;fill-rule:nonzero;stroke:none;stroke-width:2;stroke-linecap:round;stroke-linejoin:miter;stroke-miterlimit:4;stroke-dasharray:none;stroke-dashoffset:0;stroke-opacity:1"
         id="path3366"
         sodipodi:cx="16"
         sodipodi:cy="16"
         sodipodi:rx="1"
         sodipodi:ry="1"
         d="M 17,16 A 1,1 0 1 1 15,16 A 1,1 0 1 1 17,16 z" />
      <path
         sodipodi:nodetypes="ccccccccccc"
         id="rect3926"
         d="M 15,0 L 15,15 L 0,15 L 0,17 L 15,17 L 17,17 L 32,17 L 32,15 L 17,15 L 17,0 L 15,0 z"
         style="fill:#0080ff;fill-opacity:1;fill-rule:nonzero;stroke:none;stroke-width:2;stroke-linecap:round;stroke-linejoin:miter;stroke-miterlimit:4;stroke-dasharray:none;stroke-dashoffset:0;stroke-opacity:1" />
      <path
         style="fill:#6b6b6b;fill-opacity:1;fill-rule:nonzero;stroke:none;stroke-width:2;stroke-linecap:round;stroke-linejoin:miter;stroke-miterlimit:4;stroke-dasharray:none;stroke-dashoffset:0;stroke-opacity:1"
         d="M 14,0 L 14,14 L 13,13 L 13,0 L 14,0 z M 12,0 L 12,12 L 11,11 L 11,0 L 12,0 z M 10,0 L 10,10 L 9,9 L 9.0000001,0 L 10,0 z M 8.0000001,0 L 8,8 L 7,7 L 7.0000001,0 L 8.0000001,0 z M 6.0000001,0 L 6,6 L 5,5 L 5.0000001,0 L 6.0000001,0 z"
         id="path3638"
         sodipodi:nodetypes="ccccccccccccccccccccccccc" />
      <path
         sodipodi:nodetypes="ccccccccccccccccccccccccc"
         style="fill:#c3c3c3;fill-opacity:1;fill-rule:nonzero;stroke:none;stroke-width:2;stroke-linecap:round;stroke-linejoin:miter;stroke-miterlimit:4;stroke-dasharray:none;stroke-dashoffset:0;stroke-opacity:1"
         d="M 14,14 L 0,14 L 0,13 L 13,13 L 14,14 z M 12,12 L 0,12 L 0,11 L 11,11 L 12,12 z M 10,10 L 0,10 L 0,8.9999999 L 9,9 L 10,10 z M 8,8 L 0,8 L 0,7 L 7,7 L 8,8 z M 6,6 L 0,6 L 0,5 L 5,5 L 6,6 z"
         id="path3640" />
      <rect
         y="15"
         x="15"
         height="1.9999971"
         width="2"
         id="rect4379"
         style="fill:#00005c;fill-opacity:1;fill-rule:nonzero;stroke:none;stroke-width:2;stroke-linecap:round;stroke-linejoin:miter;stroke-miterlimit:4;stroke-dasharray:none;stroke-dashoffset:0;stroke-opacity:1" />
    </g>
  </g>
</svg>

<?xml version="1.0" encoding="UTF-8" standalone="no"?>
<!-- Created with Inkscape (http://www.inkscape.org/) -->

<svg xmlns:dc="http://purl.org/dc/elements/1.1/" xmlns:cc="http://creativecommons.org/ns#" xmlns:rdf="http://www.w3.org/1999/02/22-rdf-syntax-ns#" xmlns:svg="http://www.w3.org/2000/svg" xmlns="http://www.w3.org/2000/svg" xmlns:sodipodi="http://sodipodi.sourceforge.net/DTD/sodipodi-0.dtd" xmlns:inkscape="http://www.inkscape.org/namespaces/inkscape" width="32px" height="32px" id="svg3505" sodipodi:version="0.32" inkscape:version="0.91 r13725" sodipodi:docname="00.svg" inkscape:output_extension="org.inkscape.output.svg.inkscape" version="1.1">
  <defs id="defs3507">
    <inkscape:perspective sodipodi:type="inkscape:persp3d" inkscape:vp_x="0 : 16 : 1" inkscape:vp_y="0 : 1000 : 0" inkscape:vp_z="32 : 16 : 1" inkscape:persp3d-origin="16 : 10.666667 : 1" id="perspective3513" />
    <inkscape:perspective id="perspective4690" inkscape:persp3d-origin="372.04724 : 350.78739 : 1" inkscape:vp_z="744.09448 : 526.18109 : 1" inkscape:vp_y="0 : 1000 : 0" inkscape:vp_x="0 : 526.18109 : 1" sodipodi:type="inkscape:persp3d" />
    <inkscape:perspective id="perspective2564" inkscape:persp3d-origin="372.04724 : 350.78739 : 1" inkscape:vp_z="744.09448 : 526.18109 : 1" inkscape:vp_y="0 : 1000 : 0" inkscape:vp_x="0 : 526.18109 : 1" sodipodi:type="inkscape:persp3d" />
  </defs>
  <sodipodi:namedview id="base" pagecolor="#ffffff" bordercolor="#666666" borderopacity="1.0" inkscape:pageopacity="0.0" inkscape:pageshadow="2" inkscape:zoom="21.941829" inkscape:cx="16" inkscape:cy="19.646004" inkscape:current-layer="layer1" showgrid="true" inkscape:grid-bbox="true" inkscape:document-units="px" objecttolerance="10000" gridtolerance="10000" guidetolerance="10000" inkscape:window-width="1600" inkscape:window-height="878" inkscape:window-x="0" inkscape:window-y="0" inkscape:object-paths="true" inkscape:object-nodes="true" inkscape:snap-bbox="true" inkscape:snap-guide="true" showguides="true" inkscape:guide-bbox="true" inkscape:snap-path-clip="true" inkscape:snap-path-mask="true" inkscape:snap-perpendicular="true" inkscape:snap-tangential="true" inkscape:window-maximized="1">
    <inkscape:grid type="xygrid" id="grid3515" units="px" visible="true" enabled="true" spacingx="1px" spacingy="1px" empspacing="4" />
    <sodipodi:guide orientation="-0.70710678,0.70710678" position="33.245902,33.245902" id="guide3622" />
    <sodipodi:guide orientation="0.70710678,0.70710678" position="0,32" id="guide3624" />
  </sodipodi:namedview>
  <metadata id="metadata3510">
    <rdf:RDF>
      <cc:Work rdf:about="">
        <dc:format>image/svg+xml</dc:format>
        <dc:type rdf:resource="http://purl.org/dc/dcmitype/StillImage" />
        <dc:title>Vorlage für 32x32-Pixel-Icons für McMinos</dc:title>
        <dc:date>2010-04-05</dc:date>
        <dc:creator>
          <cc:Agent>
            <dc:title>Andreas Neudecker &lt;zapyon@gmx.net&gt;</dc:title>
          </cc:Agent>
        </dc:creator>
        <dc:rights>
          <cc:Agent>
            <dc:title>Copyright (C) 2010 by Andreas Neudecker</dc:title>
          </cc:Agent>
        </dc:rights>
        <dc:publisher>
          <cc:Agent>
            <dc:title>Andreas Neudecker</dc:title>
          </cc:Agent>
        </dc:publisher>
        <dc:identifier>vorlage-32x32-mcminos</dc:identifier>
        <dc:description>Vorlage für 32x32-Pixel-Icons für McMinos. Metadaten jeweils entsprechend anpassen!</dc:description>
      </cc:Work>
    </rdf:RDF>
  </metadata>
  <g id="layer1" inkscape:label="Layer 1" inkscape:groupmode="layer">
    <g id="g12913">
      <rect y="0" x="0" height="32" width="32" id="rect12898" style="opacity:1;fill:none;fill-opacity:0.5;fill-rule:nonzero;stroke:none;stroke-width:2;stroke-linecap:square;stroke-linejoin:miter;stroke-miterlimit:4;stroke-dasharray:none;stroke-dashoffset:0;stroke-opacity:0.25098039" />
      <path sodipodi:nodetypes="ccccccccc" id="path3635" d="M 3,0 3,3 0,3 0,29 32,29 32,3 29,3 29,0 3,0 Z" style="fill:black;fill-opacity:1;fill-rule:nonzero;stroke:none;stroke-width:2;stroke-linecap:round;stroke-linejoin:miter;stroke-miterlimit:4;stroke-dashoffset:0;stroke-opacity:1" inkscape:connector-curvature="0" />
      <path sodipodi:nodetypes="ccccc" style="fill:blue;fill-opacity:1;fill-rule:nonzero;stroke:none;stroke-width:2;stroke-linecap:round;stroke-linejoin:miter;stroke-miterlimit:4;stroke-dasharray:none;stroke-dashoffset:0;stroke-opacity:1" d="M 0,28 32,28 32,16 0,16 0,28 Z" id="path3646" inkscape:connector-curvature="0" />
      <path style="fill:aqua;fill-opacity:1;fill-rule:nonzero;stroke:none;stroke-width:2;stroke-linecap:round;stroke-linejoin:miter;stroke-miterlimit:4;stroke-dasharray:none;stroke-dashoffset:0;stroke-opacity:1" d="M 16,16 -2e-7,16 l 0,-12 4,0 L 16,16 Z" id="path3642" sodipodi:nodetypes="ccccc" inkscape:connector-curvature="0" />
      <path id="path3644" d="M 3.9999999,3.9999999 3.9999999,0 16,0 16,16 3.9999999,3.9999999 Z" style="fill:blue;fill-opacity:1;fill-rule:nonzero;stroke:none;stroke-width:2;stroke-linecap:round;stroke-linejoin:miter;stroke-miterlimit:4;stroke-dasharray:none;stroke-dashoffset:0;stroke-opacity:1" sodipodi:nodetypes="ccccc" inkscape:connector-curvature="0" />
      <path sodipodi:nodetypes="ccccccc" id="path2570" d="m 16,16 0,-16 12,0 0,4 4,0 0,12 -16,0 z" style="fill:aqua;fill-opacity:1;fill-rule:nonzero;stroke:none;stroke-width:2;stroke-linecap:round;stroke-linejoin:miter;stroke-miterlimit:4;stroke-dasharray:none;stroke-dashoffset:0;stroke-opacity:1" inkscape:connector-curvature="0" />
      <circle id="path3344" style="fill:silver;fill-opacity:1;fill-rule:nonzero;stroke:none;stroke-width:2;stroke-linecap:round;stroke-linejoin:miter;stroke-miterlimit:4;stroke-dasharray:none;stroke-dashoffset:0;stroke-opacity:1" cx="16" cy="16" r="1" />
      <path id="path3626" d="m 18,0 0,14.03125 14,0 0,-1 -13,0 L 19,0 18,0 Z m 2,0 0,12.03125 12,0 0,-1 -11,0 L 21,0 20,0 Z m 2,0 0.03125,10.03125 9.96875,0 0,-1 -8.96875,0 L 23,0 22,0 Z M 23.96875,0 24,8.03125 l 8,0 0,-1 -7,0 L 25,0 23.96875,0 Z M 26,0 l 0,6.03125 6,0 0,-1 -5,0 L 27,0 26,0 Z" style="fill:#c3c3c3;fill-opacity:1;fill-rule:nonzero;stroke:none;stroke-width:2;stroke-linecap:round;stroke-linejoin:miter;stroke-miterlimit:4;stroke-dasharray:none;stroke-dashoffset:0;stroke-opacity:1" inkscape:connector-curvature="0" />
      <path id="path3368" d="m 0,18 0,1 19,0 13,0 0,-1 -14,0 -18,0 z m 0,2 0,1 21,0 11,0 0,-1 -12,0 -20,0 z m 0,2 0,1 22.96875,0 L 23,23 32,23 32,22 22,22 21.96875,22 0,22 Z m 0,2 0,1 25,0 7,0 0,-1 -8,0 -24,0 z m 0,2 0,1 27,0 5,0 0,-1 -6,0 -26,0 z" style="fill:#6b6b6b;fill-opacity:1;fill-rule:nonzero;stroke:none;stroke-width:2;stroke-linecap:round;stroke-linejoin:miter;stroke-miterlimit:4;stroke-dasharray:none;stroke-dashoffset:0;stroke-opacity:1" inkscape:connector-curvature="0" />
      <circle transform="scale(-1,-1)" style="fill:#00005c;fill-opacity:1;fill-rule:nonzero;stroke:none;stroke-width:2;stroke-linecap:round;stroke-linejoin:miter;stroke-miterlimit:4;stroke-dasharray:none;stroke-dashoffset:0;stroke-opacity:1" id="path3366" cx="-16" cy="-16" r="1" />
      <path sodipodi:nodetypes="ccccccccccc" id="rect3926" d="m 15,0 0,15 -15,0 0,2 15,0 2,0 15,0 0,-2 -15,0 0,-15 -2,0 z" style="fill:#0080ff;fill-opacity:1;fill-rule:nonzero;stroke:none;stroke-width:2;stroke-linecap:round;stroke-linejoin:miter;stroke-miterlimit:4;stroke-dasharray:none;stroke-dashoffset:0;stroke-opacity:1" inkscape:connector-curvature="0" />
      <path style="fill:#6b6b6b;fill-opacity:1;fill-rule:nonzero;stroke:none;stroke-width:2;stroke-linecap:round;stroke-linejoin:miter;stroke-miterlimit:4;stroke-dasharray:none;stroke-dashoffset:0;stroke-opacity:1" d="m 14,0 0,14 -1,-1 0,-13 1,0 z m -2,0 0,12 -1,-1 0,-11 1,0 z M 10,0 10,10 9,9 9.0000001,0 10,0 Z M 8.0000001,0 8,8 7,7 l 1e-7,-7 1,0 z m -2,0 L 6,6 5,5 l 1e-7,-5 1,0 z" id="path3638" sodipodi:nodetypes="ccccccccccccccccccccccccc" inkscape:connector-curvature="0" />
      <path sodipodi:nodetypes="ccccccccccccccccccccccccc" style="fill:#c3c3c3;fill-opacity:1;fill-rule:nonzero;stroke:none;stroke-width:2;stroke-linecap:round;stroke-linejoin:miter;stroke-miterlimit:4;stroke-dasharray:none;stroke-dashoffset:0;stroke-opacity:1" d="m 14,14 -14,0 0,-1 13,0 1,1 z m -2,-2 -12,0 0,-1 11,0 1,1 z M 10,10 0,10 0,8.9999999 9,9 10,10 Z M 8,8 0,8 0,7 7,7 8,8 Z M 6,6 0,6 0,5 5,5 6,6 Z" id="path3640" inkscape:connector-curvature="0" />
      <rect y="15" x="15" height="1.9999971" width="2" id="rect4379" style="fill:#00005c;fill-opacity:1;fill-rule:nonzero;stroke:none;stroke-width:2;stroke-linecap:round;stroke-linejoin:miter;stroke-miterlimit:4;stroke-dasharray:none;stroke-dashoffset:0;stroke-opacity:1" />
    </g>
  </g>
</svg>
